assets/Seat/Flat/seat_flat.svg

<svg width="32" height="32" viewBox="0 0 32 32" fill="none" xmlns="http://www.w3.org/2000/svg">
<path d="M14.9921 19H24.7877C25.4579 19 26 19.5491 26 20.2279V23.772C26 24.4509 25.4579 25 24.7877 25L19.1253 26.3608L13.2206 25H12.5166C11.9449 25 11.4422 24.6106 11.2944 24.0416L9.84556 19.1885L6.0442 5.18764C5.86295 4.54243 6.25566 3.86745 6.92026 3.6987L9.39738 3.04357C10.0519 2.8649 10.7366 3.25202 10.9078 3.90715L11.0432 4.40561L12.696 6.97588L12.5394 9.91665L14.9558 18.8164C14.973 18.8775 14.985 18.9388 14.9921 19Z" fill="#00A6ED"/>
<path d="M12.3999 28L12.6533 29.05C12.8104 29.61 12.8924 30 13.4999 30H24.9999C25.4999 30 25.9999 29.5 25.9999 29C25.9999 28.5 25.9999 28 25.9999 28H12.3999Z" fill="black"/>
<path d="M13.9789 8.80147L12.9137 4.52375C12.8235 4.14373 12.4624 3.91962 12.1103 4.0268L11.8756 4.09501L11.0273 4.33594L12.5469 9.95703L13.2748 9.74665L13.5095 9.67844C13.8616 9.57125 14.0692 9.18149 13.9789 8.80147ZM21.5 17H11.5C10.67 17 10 16.33 10 15.5C10 14.67 10.67 14 11.5 14H21.5C22.33 14 23 14.67 23 15.5C23 16.33 22.33 17 21.5 17ZM26 28H12.4064L12.0443 26.62C11.8286 25.8 12.4268 25 13.2604 25H24.7937C25.4606 25 26 25.55 26 26.23V28Z" fill="#B4ACBC"/>
</svg>

<svg xmlns="http://www.w3.org/2000/svg" width="32" height="32" fill="none"><path fill="#00A6ED" d="M14.992 19h9.796c.67 0 1.212.55 1.212 1.228v3.544A1.22 1.22 0 0 1 24.788 25l-5.663 1.36L13.221 25h-.704c-.572 0-1.075-.39-1.223-.958l-1.448-4.854-3.802-14a1.207 1.207 0 0 1 .876-1.49l2.477-.654a1.228 1.228 0 0 1 1.51.863l.136.499 1.653 2.57-.157 2.94 2.417 8.9c.017.062.029.123.036.184Z"/><path fill="#000" d="m12.4 28 .253 1.05c.157.56.24.95.847.95H25c.5 0 1-.5 1-1v-1H12.4Z"/><path fill="#B4ACBC" d="m13.979 8.801-1.065-4.277c-.09-.38-.452-.604-.804-.497l-.234.068-.849.24 1.52 5.622.728-.21.234-.069c.353-.107.56-.497.47-.877ZM21.5 17h-10c-.83 0-1.5-.67-1.5-1.5s.67-1.5 1.5-1.5h10c.83 0 1.5.67 1.5 1.5s-.67 1.5-1.5 1.5ZM26 28H12.406l-.362-1.38c-.215-.82.383-1.62 1.216-1.62h11.534c.667 0 1.206.55 1.206 1.23V28Z"/></svg>
